images/icons/cash-app-dollar.svg

<svg fill="none" height="24" viewBox="0 0 24 24" width="24" xmlns="http://www.w3.org/2000/svg" xmlns:xlink="http://www.w3.org/1999/xlink"><clipPath id="a"><path d="m0 0h24v24h-24z"/></clipPath><clipPath id="b"><path d="m3.53613.005554h16.875v24h-16.875z"/></clipPath><mask id="c" height="24" maskUnits="userSpaceOnUse" width="24" x="0" y="0"><path d="m24 0h-24v24h24z" fill="#fff"/></mask><g clip-path="url(#a)"><g mask="url(#c)"><g clip-path="url(#b)"><path d="m12.9111 5.78053c1.8 0 3.525.6375 4.875 1.8.3.2625.75.2625 1.0125-.0375l1.3875-1.425c.3-.2625.3-.75 0-1.0125l-.0375-.0375c-1.0875-.9375-2.3625-1.65-3.75-2.1l.4125-2.062501c.075-.4125-.1875-.787499-.5625-.8624992-.0375 0-.1125 0-.15 0h-2.6625c-.3375 0-.6375.2250002-.7125.5625002l-.375 1.8375c-3.59999.1875-6.63749 1.95-6.63749 5.625 0 3.14997 2.5125 4.49997 5.17499 5.47497 2.5125.9375 3.8625 1.275 3.8625 2.5875s-1.35 2.1375-3.3 2.1375c-1.91249.0375-3.74999-.675-5.13749-2.025-.3-.2625-.75-.2625-1.0125 0l-1.5 1.4625c-.3.2625-.3.75 0 1.0125 1.2375 1.1625 2.7375 1.9875 4.35 2.4l-.4125 1.9125c-.075.4125.1875.7875.6.9h.15 2.69999c.3375 0 .6375-.225.7125-.5625l.375-1.8375c4.3125-.2625 6.9375-2.5875 6.9375-6 0-3.1125-2.625-4.4625-5.8125-5.5125-1.8375-.67497-3.41249-1.12497-3.41249-2.47497s1.46249-1.7625 2.92499-1.7625z" fill="#fff"/></g></g></g></svg>

<svg width="24" height="24" viewBox="0 0 24 24" fill="none" xmlns="http://www.w3.org/2000/svg">
<g clip-path="url(#clip0_1432_8574)">
<mask id="mask0_1432_8574" style="mask-type:luminance" maskUnits="userSpaceOnUse" x="0" y="0" width="24" height="24">
<path d="M24 0H0V24H24V0Z" fill="white"/>
</mask>
<g mask="url(#mask0_1432_8574)">
<g clip-path="url(#clip1_1432_8574)">
<path d="M12.9111 5.78053C14.7111 5.78053 16.4361 6.41803 17.7861 7.58053C18.0861 7.84303 18.5361 7.84303 18.7986 7.54303L20.1861 6.11803C20.4861 5.85553 20.4861 5.36803 20.1861 5.10553L20.1486 5.06803C19.0611 4.13053 17.7861 3.41803 16.3986 2.96803L16.8111 0.905529C16.8861 0.493029 16.6236 0.11803 16.2486 0.0430298C16.2111 0.0430298 16.1361 0.0430298 16.0986 0.0430298H13.4361C13.0986 0.0430298 12.7986 0.26803 12.7236 0.60553L12.3486 2.44303C8.74861 2.63053 5.71111 4.39303 5.71111 8.06803C5.71111 11.218 8.22361 12.568 10.8861 13.543C13.3986 14.4805 14.7486 14.818 14.7486 16.1305C14.7486 17.443 13.3986 18.268 11.4486 18.268C9.53611 18.3055 7.69861 17.593 6.31111 16.243C6.01111 15.9805 5.56111 15.9805 5.29861 16.243L3.79861 17.7055C3.49861 17.968 3.49861 18.4555 3.79861 18.718C5.03611 19.8805 6.53611 20.7055 8.14861 21.118L7.73611 23.0305C7.66111 23.443 7.92361 23.818 8.33611 23.9305C8.37361 23.9305 8.41111 23.9305 8.48611 23.9305H11.1861C11.5236 23.9305 11.8236 23.7055 11.8986 23.368L12.2736 21.5305C16.5861 21.268 19.2111 18.943 19.2111 15.5305C19.2111 12.418 16.5861 11.068 13.3986 10.018C11.5611 9.34303 9.98611 8.89303 9.98611 7.54303C9.98611 6.19303 11.4486 5.78053 12.9111 5.78053Z" fill="white"/>
</g>
</g>
</g>
<defs>
<clipPath id="clip0_1432_8574">
<rect width="24" height="24" fill="white"/>
</clipPath>
<clipPath id="clip1_1432_8574">
<rect width="16.875" height="24" fill="white" transform="translate(3.53613 0.0055542)"/>
</clipPath>
</defs>
</svg>
